X:1
T:Miss Watt's Jig -- Mether Cluny
T:Miss Watt's Jig -- Mether Cluny
T:William Marshall
C:William Marshall
%%score { 1 ( 2 3 ) }
L:1/8
M:6/8
K:D
V:1 treble 
V:2 bass 
V:3 bass 
V:1
 F2 D G2 E | F2 D G2 E | F2 D C2 D | EFD CB,A, | F2 D G2 E | F2 D E2 d | c2 e A2 c | d3 d3 :| %8
 d2 f A3 | d2 f A3 | Bcd efg | Bed cBA | d2 f A3 | B2 d E2 G | F2 A C2 E | D3 D3 || d2 f A3 | %17
 d2 f A3 | Bcd efg | Bed cBA | d2 f A2 A | B2 d E2 E | F2 A C2 E | D3 D3 |] %24
V:2
 d3 c3 | d3 c3 | [Ad]3 F3 | G3 A3 | d3 c3 | d3 a3 | A3 a3 | d3 d'3 :| d'3 dfa | d'3 d'fa | g3 e3 | %11
 g2 ^g a2 =g | f3 dfa | g3 G3 | a3 A3 | d3 d3 || d'3 dfa | d3 dfa | g3 e3 | g2 ^g a2 =g | d3 f3 | %21
 g3 G3 | a3 A3 | d3 D3 |] %24
V:3
 A,,6 | A,,6 | x6 | x6 | A,,6 | x6 | x6 | x6 :| x6 | x6 | x6 | x6 | x6 | x6 | x6 | x6 || x6 | x6 | %18
 x6 | x6 | x6 | x6 | x6 | x6 |] %24

